X:1
T:Omnes sancti Angeli - Aichinger
T:#
%%score [ 1 2 3 4 ]
L:1/8
Q:1/4=200
M:none
K:C
V:1 treble nm="Soprano" snm="S"
V:2 treble nm="Alto" snm="A"
V:3 treble-8 nm="Tenor" snm="T"
V:4 bass nm="Bass" snm="B"
V:1
"^Omnes sancti Angeli""^Gregor Aichinger\n(1561-1628)" z8 B8- | B4 c4 B4 A4 | B6 B2 B8 | e12 f4 | %4
w: O\-|* mnes san- cti|An- ge- li,|o- mnes|
 e4 d4 e6 e2 | e12 e4 |[M:4/2] d4 c4 c8- | c8 B4 G4 | d6 e2 f4 (g4- | g4 f2 e2 d4) c4 | %10
w: san- cti An- ge-|li Cu-|sto- des no\-|* stri, de-|fen- di- te nos,|* * * * de-|
 (d8 e6) e2 | A12 c4 | B6 A2 G8 | z16 | z8 z4 G4 | d6 e2 f4 g4- | g4 f4 e4 e4 | f4 d4 (e2 d2 d4-) | %18
w: fen\- * di-|te, de-|fen- di- te,||de-|fen- di- te nos|* in prae- li-|o, in prae\- * *|
 d4 ^c4 d4 d4 | (e2 f2 g2 e2 f2 e2 d2 c2 | d4) d4 e4 d4 | (c2 BA G2 B2 A2 G2 G4- | G4) ^F4 G8 | %23
w: * li- o, in|prae\- * * * * * * *|* li- o, in|prae\- * * * * * * *|* li- o,|
 G12 G4 | A4 B4 c8 | B8 e8- | e4 g4 f4 d4 | e8 d8 | c12 c4 | _B8 B4 G4 | A6 A2 A8 | A12 G4 | %32
w: ut non|pe- re- a-|mus, ut|* non pe- re-|a- mus|in tre-|men- do ju-|di- ci- o,|in tre-|
 A8 =B8 | (c6 d2 e4) f4 | g8 c8 | B8 e6 e2 | A8 (d6 c2 | B4) B4 c8 | A8 c4 c4 | (B4 A2 G2 A8) | %40
w: men- do,|in * * tre-|men- do|ju- di- ci-|o. Al\- *|* le- lu-|ia, Al- le-|lu\- * * *|
 G8 z8 | z16 | z8 (d6 c2 | B4) B4 c8 | A8 c4 c4 | (B4 A2 G2 A8) | B4 G4 d4 e4 | d8 (e6 d2) | %48
w: ia,||al\- *|* le- lu-|ia, al- le-|lu\- * * *|ia, al- le- lu-|ia, al\- *|
 c4 c4 d4 (A4- | A2 B2 c2 d2 e8 | f8 e8- | e8) z8 | z16 | z16 | z16 | (d6 c2 B4) B4 | %56
w: * le- lu- ia,|||||||al\- * * le-|
 (c6 BA B2 A2 A4- | A4 ^G4) A4[Q:1/4=198] (c4- | %58
w: lu\- * * * * *|* * ia, al\-|
[Q:1/4=196] c2[Q:1/4=195] B2[Q:1/4=193] A4)[Q:1/4=191] G4[Q:1/4=189] (A4- | %59
w: * * * le- lu\-|
[Q:1/4=187] A2[Q:1/4=186] G2[Q:1/4=183] G6[Q:1/4=181] ^F[Q:1/4=181]E[Q:1/4=179] F4) | %60
w: |
[Q:1/4=174] G16 |] %61
w: ia.|
V:2
 z16 | z16 | z8 G8- | G4 A4 G4 F4 | G6 G2 G4 G4 | (G8 c6 B2) |[M:4/2] A4 G4 (A4 G2 F2 | G8) G8- | %8
w: ||O\-|* mnes san- cti|An- ge- li Cu-|sto\- * *|* des no\- * *|* stri,|
 G8 z4 C4 | G6 A2 B4 (c4- | c4 B2 A2 G4) E4 | (F2 E2 D2 C2 D4) E4 | D8 z4 C4 | G6 A2 B4 (c4- | %14
w: * de-|fen- di- te nos|* * * * in|prae\- * * * * li-|o, de-|fen- di- te nos,|
 c4 B2 A2 G6) A2 | B4 A2 G2 A8 | A8 c6 B2 | c4 _B8 G4 | A6 A2 F4 A4 | G4 G4 (A2 G2 F2 E2 | %20
w: * * * * de-|fen- di- te nos,|de- fen- di-|te nos in|prae- li- o, in|prae- li- o, * * *|
 D4) D4 A6 A2 | G8 F4 D4 | D6 D2 D8 | E12 G4 | F4 D4 E8 | D8 G8 | G8 A4 B4 | c8 B8 | G4 G4 A8 | %29
w: * de- fen- di-|te nos in|prae- li- o,|ut non|pe- re- a-|mus, ut|non pe- re-|a- mus|in tre- men-|
 F4 F4 (G2 F2 E2 D2 | E4) E4 F8 | F12 G4 | F8 D8 | (E6 D2 C4) A,4 | E8 A4 G4 | G12 G4 | ^F16 | %37
w: do ju- di\- * * *|* ci- o,|in tre-|men- do,|in * * tre-|men- do ju-|di- ci-|o.|
 (G6 =F2 E4) E4 | (F4 D4 E4 C2 D2 | E2 F2 G8 ^F4) | G16 | z16 | z16 | z4 (G2 F2 E2 D2 E4) | %44
w: Al\- * * le-|lu\- * * * *||ia,|||al\- * * * *|
 (F6 ED E4) (A4- | A2 G2 G8 ^F4) | G16- | G8 z4 G4 | (A6 G2 F4) F4 | A8 G8 | F4 D4 G8 | z8 (c6 B2 | %52
w: le\- * * * lu\-||ia,|* al-|le\- * * lu-|ia, al-|le- lu- ia,|al\- *|
 A4) A4 B8 | G8 A4 G4 | (F4 E2 D2 E8) | ^F8 (G6 =F2 | E4) E4 F8 | E8 E8- | E4 F4 (G4 F2 E2 | %59
w: * le- lu-|ia, al- le-|lu\- * * *|ia, al\- *|* le- lu-|ia, al\-|* le- lu\- * *|
 D4 C4 D8) | D16 |] %61
w: |ia.|
V:3
 d12 e4 | d4 c4 d6 d2 | d16 | c12 A4 | c4 d4 c6 c2 | c4 g4 g4 g4 | %6
w: O- mnes|san- cti An- ge-|li,|o- mnes|san- cti An- ge-|li Cu- sto- des|
[M:4/2][K:treble-8] (f4 e2 d2 c6 d2 | e8) d8 | B8 c8 | (B6 c2 d4) e4 | d8 z4 G4 | d6 e2 f4 g4- | %12
w: no\- * * * *|* stri,|Cu- sto-|des * * no-|stri, de-|fen- di- te nos|
 (g4 f2 e2 d4 e4- | e4 d2 c2 d4) c4 | (A6 B2 c4) c4 | d4 f4 f4 e4 | d8 e4 a4 | %17
w: |* * * * in|prae\- * * li-|o, de- fen- di-|te nos in|
 (a4 g2 f2 g2 f2 e2 d2) | e6 e2 d8 | z4 G4 d6 e2 | f4 g8 f4 | (e6 d2 c2 B2 B2 AG | A6) A2 (B8 | %23
w: prae\- * * * * * *|* li- o,|de- fen- di-|te nos in|prae\- * * * * * *|* li- o,|
 c8) G8 | d8 z8 | z8 c8- | c4 e4 d4 g4 | c8 g8 | e12 f4 | d8 d4 d4 | d4 ^c4 d8 | A12 c4 | c8 g8 | %33
w: * ut|non,|ut|* non pe- re-|a- mus|in tre-|men- do ju-|di- ci- o,|in tre-|men- do,|
 (g6 f2 e4) d4 | c4 B4 A4 (e4- | e2 d2 d8) ^c4 | d8 z4 d4 | d4 d4 g8 | z16 | z8 (d6 c2 | %40
w: in * * tre-|men- do ju- di\-|* * * ci-|o. Al-|le- lu- ia,||al\- *|
 B4) B4 c8 | A8 c4 c4 | (B4 A2 G2 A8) | G8 z8 | z4 d4 (A2 B2 c2 d2 | e4) g4 d8 | (G6 A2 B4) (c4- | %47
w: * le- lu-|ia, al- le-|lu\- * * *|ia,|al- le\- * * *|* lu- ia,|al\- * * le\-|
 c2 BA) B4 c6 B2 | A4 A4 A8 | z4 A4 B4 (c4- | c2 BA B4) (c6 d2 | e4) e4 f4 e4 | f8 d4 (g2 f2 | %53
w: * * * lu- ia, al-|le- lu- ia,|al- le- lu\-|* * * * ia, *|* al- le- lu-|ia, al- le\- *|
 e2 d2 c6 d2 e4- | e2 d2 d8) ^c4 | d16 | z8 (d6 c2 | B4) B4 c8 | A8 c4 c4 | (B4 A2 G2 A8) | G16 |] %61
w: |* * * lu-|ia,|al\- *|* le- lu-|ia, al- le-|lu\- * * *|ia.|
V:4
 z8 G,8- | G,4 A,4 G,4 ^F,4 | G,6 G,2 G,8 | C,12 D,4 | C,4 B,,4 C,6 C,2 | C,12 C,4 | %6
w: O\-|* mnes san- cti|An- ge- li,|o- mnes|san- cti An- ge-|li Cu-|
[M:4/2] D,4 E,4 (F,4 E,2 D,2 | C,2 D,2 E,2 F,2 G,8- | G,8) F,4 E,4 | (E,4 D,2 C,2 G,4) C,4 | %10
w: sto- des no\- * *||* stri, Cu-|sto\- * * * des|
 (G,6 F,2 E,8) | D,8 z4 C,4 | G,6 A,2 B,4 (C4- | C4 B,2 A,2 G,4) A,4 | F,8 E,8 | D,12 C,4 | %16
w: no\- * *|stri, de-|fen- di- te nos|* * * * in|prae- li-|o, de-|
 (D,8 A,6) G,2 | F,4 G,8 _B,4 | A,6 A,2 D,4 F,4 | E,4 E,4 D,8- | D,4 B,,4 C,4 D,4 | E,8 F,4 G,4 | %22
w: fen\- * di-|te nos in|prae- li- o, in|prae- li- o,|* de- fen- di-|te nos in|
 D,6 D,2 G,8 | C,12 E,4 | D,4 G,4 C,8 | G,8 z8 | z16 | z16 | C12 A,4 | _B,8 G,4 B,4 | A,6 A,2 D,8 | %31
w: prae- li- o,|ut non|pe- re- a-|mus,|||in tre-|men- do ju-|di- ci- o,|
 D,12 E,4 | F,8 G,8 | C,12 D,4 | E,8 F,4 C,4 | (G,6 F,2 E,4) E,4 | D,4 D,4 D,4 D,4 | %37
w: in tre-|men- do,|in tre-|men- do ju-|di\- * * ci-|o. Al- le- lu-|
 G,4 G,4 C,4 C,4 | D,8 z8 | z16 | (G,6 F,2 E,4) E,4 | F,4 D,4 E,4 (C,2 D,2 | E,2 F,2 G,8) ^F,4 | %43
w: ia, al- le- lu-|ia,||al\- * * le-|lu- ia, al- le\- *|* * * lu-|
 (G,2 =F,2 E,2 D,2 C,8 | D,8) z8 | z16 | z16 | (G,6 F,2 E,4) E,4 | F,8 D,8 | F,4 F,4 (E,4 D,2 C,2 | %50
w: ia, * * * *||||al\- * * le-|lu- ia,|al- le- lu\- * *|
 D,8) C,4 (C4- | C2 B,2 A,2 G,2 A,6 G,2 | F,4) D,4 G,8 | C,4 (E,4 F,4 G,4 | A,4) _B,4 A,8 | %55
w: * ia, al\-||* le- lu-|ia, al\- * *|* le- lu-|
 D,4 D,4 G,8 | (A,8 D,8) | E,8 (A,,6 B,,2 | C,4) D,4 E,4 F,4 | G,4 E,4 D,8 | G,16 |] %61
w: ia, al- le-|lu\- *|ia, al\- *|* le- lu- ia,|al- le- lu-|ia.|

